symbols/web/dangerous/materialsymbolsrounded/dangerous_wght100grad200fill1_48px.svg

<svg xmlns="http://www.w3.org/2000/svg" height="48" width="48"><path d="M18.7 40.2q-.7 0-1.325-.25t-1.125-.8l-7.4-7.4q-.55-.5-.8-1.125T7.8 29.3V18.65q0-.65.25-1.275.25-.625.8-1.175l7.4-7.4q.5-.5 1.125-.75T18.7 7.8h10.65q.65 0 1.275.25.625.25 1.175.75l7.4 7.4q.5.55.75 1.175t.25 1.275V29.3q0 .7-.25 1.325t-.75 1.125l-7.4 7.4q-.55.55-1.175.8t-1.275.25ZM24 25.25l5.35 5.3q.25.25.575.225.325-.025.625-.275.2-.25.2-.6t-.2-.65L25.25 24l5.35-5.35q.2-.25.175-.575-.025-.325-.225-.625-.3-.2-.65-.2-.35 0-.6.2l-5.3 5.3-5.3-5.35q-.3-.2-.625-.175-.325.025-.575.225-.25.3-.25.65 0 .35.25.6l5.25 5.3-5.3 5.3q-.25.3-.225.625.025.325.275.575.25.25.6.25t.65-.25Z"/></svg>

<svg xmlns="http://www.w3.org/2000/svg" height="48" width="48"><path d="M18.7 40.2Q18 40.2 17.375 39.95Q16.75 39.7 16.25 39.15L8.85 31.75Q8.3 31.25 8.05 30.625Q7.8 30 7.8 29.3V18.65Q7.8 18 8.05 17.375Q8.3 16.75 8.85 16.2L16.25 8.8Q16.75 8.3 17.375 8.05Q18 7.8 18.7 7.8H29.35Q30 7.8 30.625 8.05Q31.25 8.3 31.8 8.8L39.2 16.2Q39.7 16.75 39.95 17.375Q40.2 18 40.2 18.65V29.3Q40.2 30 39.95 30.625Q39.7 31.25 39.2 31.75L31.8 39.15Q31.25 39.7 30.625 39.95Q30 40.2 29.35 40.2ZM24 25.25 29.35 30.55Q29.6 30.8 29.925 30.775Q30.25 30.75 30.55 30.5Q30.75 30.25 30.75 29.9Q30.75 29.55 30.55 29.25L25.25 24L30.6 18.65Q30.8 18.4 30.775 18.075Q30.75 17.75 30.55 17.45Q30.25 17.25 29.9 17.25Q29.55 17.25 29.3 17.45L24 22.75L18.7 17.4Q18.4 17.2 18.075 17.225Q17.75 17.25 17.5 17.45Q17.25 17.75 17.25 18.1Q17.25 18.45 17.5 18.7L22.75 24L17.45 29.3Q17.2 29.6 17.225 29.925Q17.25 30.25 17.5 30.5Q17.75 30.75 18.1 30.75Q18.45 30.75 18.75 30.5Z"/></svg>
